packages/vibrant-icons/assets/icons/Strikethrogh/Thin.svg

<svg width="24" height="24" viewBox="0 0 24 24" fill="none" xmlns="http://www.w3.org/2000/svg">
<path d="M12 2.5752C8.09887 2.5752 5.57495 5.27114 5.57495 7.7502C5.57495 9.17268 6.20554 10.3028 7.16837 11.1499H2V12.8499H10.5275C10.9497 12.9711 11.384 13.0733 11.8241 13.1584C13.3467 13.4527 14.6493 13.8055 15.5582 14.3343C16.4194 14.8352 16.825 15.423 16.825 16.2502C16.825 17.1917 16.4139 17.985 15.6263 18.5702C14.8174 19.171 13.5714 19.5752 11.9234 19.5752C10.5797 19.5752 9.30148 19.0963 8.37126 18.3557C7.43617 17.6111 6.92495 16.6683 6.92495 15.7502H6.8499C6.8499 15.7501 6.8499 15.7503 6.8499 15.7502L5.1499 15.7499C5.1499 15.7498 5.1499 15.75 5.1499 15.7499L5.07495 15.7502C5.07495 17.3763 5.97001 18.8085 7.21892 19.8029C8.47271 20.8012 10.1561 21.4252 11.9234 21.4252C13.852 21.4252 15.5192 20.9544 16.7295 20.0552C17.961 19.1404 18.675 17.8087 18.675 16.2502C18.675 14.6632 17.8305 13.5771 16.6779 12.8499H22V11.1499H11.3238C10.2385 10.8672 9.32267 10.4718 8.65361 9.97371C7.84329 9.37051 7.42495 8.64785 7.42495 7.7502C7.42495 6.49941 8.90103 4.4252 12 4.4252C14.6582 4.4252 16.375 6.16519 16.375 7.80599H18.225C18.225 4.8352 15.3417 2.5752 12 2.5752Z" fill="#0C0C0C"/>
</svg>

<svg xmlns="http://www.w3.org/2000/svg" width="24" height="24" fill="none"><path fill="#0C0C0C" d="M12 2.575c-3.901 0-6.425 2.696-6.425 5.175 0 1.423.63 2.553 1.593 3.4H2v1.7h8.528q.635.181 1.296.308c1.523.295 2.825.648 3.734 1.176.861.501 1.267 1.089 1.267 1.916 0 .942-.411 1.735-1.199 2.32-.809.601-2.055 1.005-3.703 1.005-1.343 0-2.622-.479-3.552-1.22-.935-.744-1.446-1.687-1.446-2.605h-1.85c0 1.626.895 3.058 2.144 4.053 1.254.998 2.937 1.622 4.704 1.622 1.929 0 3.596-.47 4.807-1.37 1.231-.915 1.945-2.246 1.945-3.805 0-1.587-.844-2.673-1.997-3.4H22v-1.7H11.324c-1.085-.283-2.001-.678-2.67-1.176-.81-.603-1.229-1.326-1.229-2.224C7.425 6.5 8.9 4.425 12 4.425c2.658 0 4.375 1.74 4.375 3.381h1.85c0-2.97-2.883-5.23-6.225-5.23"/></svg>
